X:1
T:Genevieve's
R:waltz
M:3/4
L:1/8
K:A
E|:c>dc BAG|A>Bc E2E|F>Ad cEc|c>BA B2E|
|c>dc BAG|A>Bc E2E|F>Ad cEc|1 B>AG A2E:|2 B>AG A2e|]
|f>ff fga|e2d c>BA|d>ed cBA|FGA B2e|
|f>ff fga|e2d c>BA|d>ed cBA|FAG A2e|
|f>ff fga|e2d c>BA|d>e{fg}a ecA|FGA B2E|
|c>dc BAG|A>Bc E2E|F>Ad cEc|B>AG A2E|